!!!COM: Fe/licien David
!!!CNT: Francais
!!!TXO: Francais
!!!OTL: Plainte Amoureuse
!!!LYR: M Fonteille
!!!ENC: Jacob Pegg
!!!YOR: Romantic French Song 1830-1870, David Tunley, ed., New York: Garland Publishing, Inc., 1995
!!!ODT: 1866/
!!NB: Vocal melody and text only encoded.
!!NB: Only first strophe & refrain encoded.
**kern	**silbe
*clef G2	*
*k[b-e-a-d-]	*
*M4/4	*
=4	=4
2r	.
4r	.
{4cc	{A
=5	=5
4cc	la
4cc	fleur
4cc	pre\s
4ff	d'e/-
=6	=6
(8.cc	-clo-
16b-	|
8.a-	|
16g)	|
4f}	-re,}
{4g	{J'ai
=7	=7
4a-	dit:
(8.b-	pour-
16cc)	|
4.cc	-quoi
8g	t'ou-
=8	=8
4a-}	-vrir?}
4r	.
4r	.
{4cc	{La
=9	=9
4cc	bi-
4cc	-se
4cc	souf-
4ff	-fle en-
=10	=10
(8.ee-	-co-
16dd-	|
8.cc	|
16b-)	|
4a-}	-re,}
{4ee-	{Et
=11	=11
4ddn	te
4cc	fe-
4.cc	-ra
8bn	mou-
=12	=12
4cc}	-rir!}
4r	.
2r	.
=13	=13
2r	.
4r	.
{4dd-	{Pau-
=14	=14
4cc	-vre
4bn	fou!
4cc	me
4ff	dit~
=15	=15
(4ff	~el-
8een	|
8dd-)	|
4cc}	-le,}
{4b-	{Sens~
=16	=16
4a-	~tu
4b-	ces
4cc	chauds
4ddn	ray-
=17	=17
2.ee-}	-ons?}
{4b-	{De/-
=18	=18
4b-	-ja\
4a-	les
4.dd-	pa-
8dd-	-pil-
=19	=19
4cc	-lons
(8a-	M'ef-
8b-)	|
[2cc	-fleu-
=20	=20
4cc]	|
4cc	-rent
4ddn	de
(8een	leur
8ff)	|
=21	=21
(4.een	ai-
16ddn	|
16cc)	|
[2cc	-le.
=22	=22
1cc_	|
=23	=23
4cc]}	|}
4r	.
2r	.
=24	=24
1r	.
=25	=25
2r;	.
{4.ff	{Je
8ff	me
=26	=26
2een	meurs
4.ff	de
8a-	lan-
=27	=27
2.cc}	-geur!}
{4a-	{Il
=28	=28
4b-	fait
(8cc	froid
8dd-)	|
4cc	dans
(8.cc	mon
16f)	|
=29	=29
2f}	coeur}
2r	.
*-	*-
